X:1
T:Title
%%score { ( 1 2 5 6 ) | ( 3 4 ) }
L:1/8
Q:1/4=110
M:3/4
K:G
V:1 bass nm="Grand Piano"
V:2 bass 
V:5 bass 
V:6 bass 
V:3 bass 
V:4 bass 
V:1
 B,-[B,-E] [B,-E]2 [B,E]2 | E2[K:treble] D2 DD | z G G2 [CEA]2 | [B,DG]2 [A,DF]2 [DFA]2 | %4
w: E.~S.~Lorenz * * *||||
 [^DFB][DF] [DF]2 [B,DA]2 | A2 z2 [EGB][GB] | [GB]3 A .[EG]2 | [CFA]4 z2 | %8
w: ||||
 B,-[B,-E] [B,-E]2 [B,E]2 | E2[K:treble] D2 DD | z G G2 [EA]2 | [^DB]4 z2 | [Ed]c c2 [DFA]2 | %13
w: |||||
 .c2 z2 [EA][EA] | [B,DG][GB] [FB]2 [CFA]2 | [B,DG]4 z2 | d-[Bd-] d3- [cd-] | %17
w: ||||
 [DBd-][Ad-] [Acd]2 [F,A,]2 | d6 | d2 z2 z2 | [FA^d][Ad] [Ad]2 [FAd]2 | [EAe]A A2 [E^GB]2 | %22
w: |||||
 .[Bd]2 z2 z2 | [B,DG]4 z2 | d6- | d4 z2 | d6 | d2 z2 z2 | [FA^d][Ad] [Ad]2 [FAd]2 | %29
w: |||||||
 [EAe]A A2 [E^GB]2 | .[Bd]2 z2 z2 | [B,DG]4 z2 |] %32
w: |||
V:2
 .[D,D]2 z2 z2 | [F,C]4[K:treble] z2 | D4 z2 | x6 | x6 | [B,E]4 z2 | C6 | x6 | .[D,D]2 z2 z2 | %9
 [F,C]4[K:treble] z2 | D4 z2 | x6 | x6 | [EG]4 z2 | x6 | x6 | .D2 B4 | x6 | z2 [Ec]4 | %19
 [Ec]B [Bd]2 B,2 | x6 | x6 | E-[Ec] [DGB]2 [CFA]2 | x6 | z2 B4 | x6 | z2 [Ec]4 | [Ec]B [Bd]2 B,2 | %28
 x6 | x6 | E-[Ec] [DGB]2 [CFA]2 | x6 |] %32
V:3
 z E, E,2 E,2 | A,,4 [C,F,]2 | [A,,G,]4 A,,2 | D,2 D,,2 C,2 | z B, B,2 B,,,2 | z2 G2 z D | %6
 A,,2 z F z E | D,,2 D,2 D,,2 | z E, E,2 E,2 | A,,4 [C,F,]2 | [B,,G,]4 [C,E,]2 | %11
 [B,,F,]2 B,,,2 B,,2 | z E [E,A,E]2 [D,,D,]2 | z[K:treble] B B2[K:bass] z C | z D D2 D,,2 | %15
 G,,4 z2 | z D D3 E | z C [D,F,A,]2 D,2 | z E [D,F,A,]2 z F | z D [D,G,B,]2 [D,G,]2 | %20
 z[K:treble] F F2[K:bass] B,,2 | z E E2 B,,2 | z A D,2 D,,2 | G,,4 z2 | z D D3 E | %25
 z C [D,F,A,]2 D,2 | z E [D,F,A,]2 z F | z D [D,G,B,]2 [D,G,]2 | z[K:treble] F F2[K:bass] B,,2 | %29
 z E E2 B,,2 | z A D,2 D,,2 | G,,4 z2 |] %32
V:4
 G,,6 | x6 | x6 | x6 | B,,4 z2 | E,,4 E,2 | z2 E,2 A,,2 | x6 | G,,6 | x6 | x6 | x6 | A,,2 z2 z2 | %13
 [E,,E,]4[K:treble][K:bass] C,2 | D,4 z2 | x6 | G,,2 [D,G,B,]2 [D,G,]2 | D,,2 z2 z2 | D,,2 z2 D,2 | %19
 G,,2 z2 z2 | [B,,B,]4[K:treble][K:bass] z2 | C,4 z2 | A,,2 z2 z2 | x6 | G,,2 [D,G,B,]2 [D,G,]2 | %25
 D,,2 z2 z2 | D,,2 z2 D,2 | G,,2 z2 z2 | [B,,B,]4[K:treble][K:bass] z2 | C,4 z2 | A,,2 z2 z2 | %31
 x6 |] %32
V:5
 x6 | x2[K:treble] x4 | x6 | x6 | x6 | x6 | z2 A,2 z2 | x6 | x6 | x2[K:treble] x4 | x6 | x6 | x6 | %13
 x6 | x6 | x6 | z2 z2 B,2 | x6 | Dc z2 [F,A,]2 | x6 | x6 | x6 | x6 | x6 | DB z2 z c | %25
 [DB]A [Ac]2 [F,A,]2 | Dc z2 [F,A,]2 | x6 | x6 | x6 | x6 | x6 |] %32
V:6
 x6 | x2[K:treble] x4 | x6 | x6 | x6 | x6 | x6 | x6 | x6 | x2[K:treble] x4 | x6 | x6 | x6 | x6 | %14
 x6 | x6 | x6 | x6 | x6 | x6 | x6 | x6 | x6 | x6 | z2 z2 B,2 | x6 | x6 | x6 | x6 | x6 | x6 | x6 |] %32

